src/browser/themes/shared/zen-icons/nucleo/desktop-notification-blocked.svg

#filter dumbComments emptyLines substitution
# This Source Code Form is subject to the terms of the Mozilla Public
# License, v. 2.0. If a copy of the MPL was not distributed with this
# file, You can obtain one at http://mozilla.org/MPL/2.0/.
<svg xmlns="http://www.w3.org/2000/svg" height="18" width="18" viewBox="0 0 18 18"><g stroke-linecap="round" stroke-width="1.5" fill="none" stroke="context-fill" stroke-opacity="context-fill-opacity" stroke-linejoin="round" class="nc-icon-wrapper"><path d="M13.368,4.632c-.726-1.694-2.408-2.882-4.368-2.882h0c-2.623,0-4.75,2.127-4.75,4.75v4.75c0,1.105-.895,2-2,2h2.5"></path><path d="M8,13.25h7.75c-1.105,0-2-.895-2-2v-3.5"></path><path d="M10.588,15.185c-.095-.117-.237-.185-.388-.185h-2.399c-.151,0-.293,.068-.388,.185-.095,.117-.132,.271-.101,.418,.173,.822,.868,1.397,1.689,1.397s1.516-.575,1.689-1.397c.031-.147-.006-.301-.101-.418Z" fill="currentColor" data-color="color-2" data-stroke="none" stroke="none"></path><line x1="2" y1="16" x2="16" y2="2" data-color="color-2"></line></g></svg>

#filter dumbComments emptyLines substitution
# This Source Code Form is subject to the terms of the Mozilla Public
# License, v. 2.0. If a copy of the MPL was not distributed with this
# file, You can obtain one at http://mozilla.org/MPL/2.0/.
<svg fill="none" stroke="context-fill" stroke-width="1.5" stroke-opacity="context-fill-opacity" height="18" width="18" viewBox="0 0 18 18" xmlns="http://www.w3.org/2000/svg" xmlns:svg="http://www.w3.org/2000/svg"><path class="nc-icon-wrapper" d="M 2,16 16,2 M 10.588,15.185 C 10.493,15.068 10.351,15 10.2,15 H 7.801 C 7.65,15 7.508,15.068 7.413,15.185 7.318,15.302 7.281,15.456 7.312,15.603 7.485,16.425 8.18,17 9.001,17 c 0.821,0 1.516,-0.575 1.689,-1.397 0.031,-0.147 -0.006,-0.301 -0.101,-0.418 z M 8,13.25 h 7.75 c -1.105,0 -2,-0.895 -2,-2 V 7.75 M 13.368,4.632 C 12.642,2.938 10.96,1.75 9,1.75 v 0 C 6.377,1.75 4.25,3.877 4.25,6.5 v 4.75 c 0,1.105 -0.895,2 -2,2 h 2.5"/></svg>
